public/images/front/header-logo.svg

<svg width="140" height="81" viewBox="0 0 140 81" fill="none" xmlns="http://www.w3.org/2000/svg">
<path d="M81.0492 11.0676C81.0492 8.02729 78.6432 5.54838 75.6358 5.4135C75.5045 2.406 73.0183 0 69.9817 0C66.945 0 64.4588 2.406 64.3276 5.4135C61.3237 5.54473 58.9141 8.02364 58.9141 11.0676C58.9141 14.1115 61.3237 16.5868 64.3276 16.7217C64.4624 19.7292 66.945 22.1352 69.9817 22.1352C73.0183 22.1352 75.5009 19.7255 75.6358 16.7217C78.6432 16.5905 81.0492 14.1043 81.0492 11.0676ZM80.1452 10.6301H75.6467V6.2957C78.0162 6.42329 79.9337 8.28247 80.1452 10.6301ZM74.7681 15.8577H70.4191V14.724C70.5649 14.1881 70.8784 13.4189 71.5601 12.7226C72.2746 11.9935 73.0694 11.6654 73.6271 11.5123H74.7608V15.8541H74.7645L74.7681 15.8577ZM65.1879 11.505H66.3289C66.8611 11.6363 67.6267 11.9352 68.3193 12.6023C69.1067 13.3606 69.4166 14.2318 69.5369 14.713V15.8504H65.1915V11.5014H65.1879V11.505ZM65.1879 6.27747H69.5333V7.42579C69.4275 7.94709 69.176 8.69805 68.5417 9.38704C67.7652 10.2291 66.8393 10.5244 66.3326 10.6265H65.1806V6.27382H65.1842L65.1879 6.27747ZM69.9889 13.408C69.7556 12.9414 69.4166 12.4383 68.9318 11.968C68.5271 11.578 68.1042 11.2936 67.7032 11.0895C68.1917 10.8525 68.7167 10.5025 69.1979 9.98125C69.5697 9.5766 69.8358 9.15373 70.0218 8.74909C70.2769 9.22664 70.6415 9.74065 71.1555 10.2109C71.5127 10.5426 71.921 10.827 72.3548 11.053C71.8919 11.29 71.3924 11.6217 70.9295 12.0993C70.5139 12.5331 70.2077 12.9851 69.9889 13.408ZM73.638 10.6301C73.1386 10.4843 72.4205 10.1817 71.757 9.57296C70.9659 8.84387 70.5977 8.00541 70.4228 7.41485V6.28476H74.7718V10.6338H73.638V10.6301ZM74.7536 5.40256H70.4191V0.904072C72.7631 1.11551 74.626 3.03302 74.7536 5.40256ZM69.5406 0.904072V5.40256H65.2061C65.3337 3.03302 67.1929 1.11551 69.5406 0.904072ZM64.313 6.29205V10.6265H59.8145C60.0259 8.28247 61.9434 6.42329 64.313 6.29205ZM59.8145 11.505H64.313V15.8395C61.9434 15.7119 60.0259 13.8527 59.8145 11.505ZM65.2025 16.7326H69.5369V21.2311C67.1965 21.0197 65.3373 19.1022 65.2025 16.7326ZM70.4191 21.2311V16.7326H74.7536C74.626 19.1022 72.7668 21.016 70.4191 21.2311ZM75.6467 15.8395V11.505H80.1452C79.9337 13.8527 78.0162 15.7119 75.6467 15.8395Z" fill="white"/>
<path d="M12.2013 34.3985C11.1369 34.3985 10.3421 34.4823 9.80991 34.65C9.28132 34.8177 8.88397 35.175 8.62879 35.7181C8.36996 36.265 8.24237 37.1289 8.24237 38.3137V47.5075H19.3464V38.2699C19.3464 37.0852 19.2261 36.2285 18.9819 35.6999C18.7413 35.1713 18.3549 34.8213 17.8226 34.6537C17.2904 34.486 16.4665 34.4021 15.3437 34.4021V33.6293H27.7237V34.4021H27.4065C26.404 34.4313 25.653 34.5297 25.1536 34.6974C24.6542 34.8651 24.2751 35.2223 24.0162 35.7655C23.7574 36.3123 23.6298 37.1617 23.6298 38.3137V59.9786C23.6298 61.1634 23.7574 62.0274 24.0162 62.5742C24.2751 63.121 24.6761 63.4746 25.2229 63.6423C25.7697 63.81 26.6045 63.8938 27.7273 63.8938V64.6667H15.3474V63.8938H15.7556C16.7253 63.8938 17.4617 63.7954 17.9611 63.5986C18.4642 63.4017 18.8178 63.0226 19.0293 62.4612C19.2407 61.8998 19.3501 61.0723 19.3501 59.9786V49.2391H8.24601V59.9786C8.24601 61.0723 8.35902 61.8998 8.58869 62.4612C8.81835 63.0226 9.17196 63.4017 9.6568 63.5986C10.1416 63.7954 10.8562 63.8938 11.7967 63.8938H12.205V64.6667H0V63.8938H0.408291C1.31965 63.8938 2.02323 63.7954 2.52265 63.5986C3.02573 63.4017 3.39027 63.0299 3.61629 62.483C3.84231 61.9362 3.95896 61.1014 3.95896 59.9786V38.3137C3.95896 36.7352 3.70743 35.689 3.208 35.175C2.70857 34.6573 1.85189 34.3985 0.637954 34.3985H0V33.6256H12.2013V34.3985Z" fill="white"/>
<path d="M50.1981 56.016H50.2892V38.2663C50.2892 37.1143 50.1616 36.265 49.9028 35.7181C49.6476 35.175 49.2357 34.8177 48.6743 34.65C48.1129 34.4823 47.2999 34.3985 46.2391 34.3985V33.6256H55.2069V34.3985C54.0841 34.3985 53.2712 34.6427 52.7718 35.1276C52.2723 35.6124 52.0208 36.3998 52.0208 37.4935V65.1661H51.3828L33.7243 39.9979H33.6331V59.9786C33.6331 61.1014 33.7534 61.9435 33.9977 62.5049C34.2419 63.0663 34.6174 63.4309 35.1351 63.5949C35.6527 63.7626 36.3964 63.861 37.3661 63.8902H38.0004V64.663H28.3983V63.8902C29.6742 63.8282 30.5746 63.5876 31.1068 63.1647C31.6391 62.7382 31.9052 61.8888 31.9052 60.6129V37.4935C31.7849 37.3404 31.6537 37.1654 31.5188 36.9685C31.3802 36.7717 31.2235 36.5675 31.0412 36.3561C30.4652 35.565 29.9877 35.0437 29.6086 34.7849C29.2294 34.5261 28.6024 34.3985 27.7202 34.3985V33.6256H34.457L50.2017 56.016H50.1981Z" fill="white"/>
<path d="M80.6008 34.3985C79.7806 34.3985 79.1681 34.5261 78.7562 34.7849C78.3479 35.0401 78.1438 35.5031 78.1438 36.1738C78.1438 36.5675 78.2495 37.1144 78.4646 37.8106L83.5172 55.8338H83.6083L87.385 43.0455L85.8831 37.7195C85.5513 36.6259 85.1722 35.8239 84.7457 35.3099C84.3228 34.7922 83.5791 34.4896 82.5183 34.3985V33.6257H93.5312V34.3985C92.3793 34.3985 91.5335 34.5516 91.0049 34.8542C90.4727 35.1567 90.2102 35.7036 90.2102 36.491C90.2102 36.8847 90.3305 37.5226 90.5748 38.4048L95.3102 55.6551H95.3977L100.086 38.9991C100.388 37.9966 100.541 37.2091 100.541 36.6295C100.541 35.8421 100.29 35.2734 99.7905 34.9234C99.291 34.5735 98.4781 34.3985 97.3553 34.3985V33.6257H105.321V34.3985C104.745 34.4605 104.274 34.6099 103.91 34.8542C103.545 35.0948 103.221 35.5213 102.933 36.1264C102.645 36.7316 102.331 37.6429 102 38.8569L94.3515 65.3447H93.5349L88.3 46.228H88.2089L82.5183 65.3447H81.833L74.0499 38.1715C73.6562 36.8373 73.2443 35.9041 72.8178 35.3755C72.3949 34.8432 71.7278 34.5151 70.8164 34.3948V33.622H80.6008V34.3948V34.3985Z" fill="white"/>
<path d="M115.28 34.3985C114.46 34.3985 113.847 34.5261 113.435 34.7849C113.027 35.0401 112.823 35.5031 112.823 36.1738C112.823 36.5675 112.929 37.1144 113.144 37.8106L118.196 55.8338H118.287L122.064 43.0455L120.562 37.7195C120.231 36.6259 119.851 35.8239 119.425 35.3099C119.002 34.7922 118.258 34.4896 117.197 34.3985V33.6257H128.21V34.3985C127.055 34.3985 126.213 34.5516 125.684 34.8542C125.152 35.1567 124.889 35.7036 124.889 36.491C124.889 36.8847 125.01 37.5226 125.254 38.4048L129.989 55.6551H130.077L134.765 38.9991C135.068 37.9966 135.221 37.2091 135.221 36.6295C135.221 35.8421 134.969 35.2734 134.47 34.9234C133.97 34.5735 133.157 34.3985 132.034 34.3985V33.6257H140V34.3985C139.424 34.4605 138.954 34.6099 138.589 34.8542C138.224 35.0948 137.9 35.5213 137.612 36.1264C137.324 36.7316 137.011 37.6429 136.679 38.8569L129.031 65.3447H128.214L122.979 46.228H122.888L117.197 65.3447H116.512L108.729 38.1715C108.335 36.8373 107.923 35.9041 107.497 35.3755C107.074 34.8432 106.407 34.5151 105.496 34.3948V33.622H115.28V34.3948V34.3985Z" fill="white"/>
<path d="M58.7865 43.5413C58.7865 46.742 59.1364 49.0642 59.8364 50.5041C60.5363 51.9441 61.6846 52.6622 63.2777 52.6622C64.8707 52.6622 66.1066 51.8967 66.77 50.3583C67.4335 48.8236 67.7652 46.5488 67.7652 43.5377C67.7652 40.2786 67.4007 37.9419 66.6716 36.5347C65.9425 35.124 64.8015 34.4167 63.2485 34.4167C61.9398 34.4167 60.9592 34.8943 60.3066 35.853C59.6541 36.8081 59.2349 37.9309 59.0562 39.2178C58.8776 40.5046 58.7865 41.9446 58.7865 43.5377M63.2777 33.4252C64.9254 33.4252 66.3289 33.9027 67.4809 34.8615C68.6365 35.8166 69.5041 37.067 70.0801 38.6126C70.6597 40.1547 70.9477 41.7988 70.9477 43.5413C70.9477 45.2838 70.6561 46.9498 70.0801 48.4845C69.5041 50.0193 68.6365 51.2624 67.4809 52.2211C66.3253 53.1762 64.9254 53.6538 63.2777 53.6538C61.6299 53.6538 60.3103 53.1945 59.1547 52.2758C57.9991 51.3571 57.1169 50.125 56.5117 48.583C55.9029 47.0409 55.604 45.3567 55.604 43.5413C55.604 41.7259 55.892 40.1547 56.4716 38.6126C57.0476 37.067 57.9152 35.8166 59.0708 34.8615C60.2264 33.9027 61.6299 33.4252 63.2777 33.4252Z" fill="white"/>
<path d="M66.8286 56.1983H59.1768V57.4122H66.8286V56.1983Z" fill="white"/>
<path d="M22.4352 80.4442C21.1823 80.4442 20.1304 79.3655 20.1304 78.0121C20.1304 76.6587 21.1823 75.58 22.4352 75.58C23.6881 75.58 24.74 76.6587 24.74 78.0121C24.74 79.3655 23.6881 80.4442 22.4352 80.4442ZM22.4352 79.5196C23.1588 79.5196 23.7819 78.8831 23.7819 78.0121C23.7819 77.1411 23.1588 76.5046 22.4352 76.5046C21.7116 76.5046 21.0885 77.1411 21.0885 78.0121C21.0885 78.8831 21.7116 79.5196 22.4352 79.5196Z" fill="white"/>
<path d="M28.5784 77.8647C28.9067 77.9853 29.369 78.3337 29.369 79.0171C29.369 79.7608 28.7459 80.3571 27.8347 80.3571H25.7644V75.6671H27.7543C28.5985 75.6671 29.1814 76.2232 29.1814 76.92C29.1814 77.4627 28.8531 77.7642 28.5784 77.8647ZM27.6404 76.4845H26.7225V77.523H27.6404C27.9754 77.523 28.2233 77.3019 28.2233 77.0004C28.2233 76.7056 27.9754 76.4845 27.6404 76.4845ZM26.7225 79.5397H27.7275C28.1295 79.5397 28.4109 79.2851 28.4109 78.9233C28.4109 78.5615 28.1295 78.3136 27.7275 78.3136H26.7225V79.5397Z" fill="white"/>
<path d="M31.5376 80.4442C30.5661 80.4442 29.9497 79.7876 29.9497 78.9233H30.9011C30.9145 79.2449 31.1423 79.5196 31.5376 79.5196C31.9329 79.5196 32.1674 79.2516 32.1674 78.8898V75.6671H33.1255V78.8898C33.1255 79.7809 32.5158 80.4442 31.5376 80.4442Z" fill="white"/>
<path d="M35.3226 78.4074V79.4459H37.6408V80.3571H34.3645V75.6671H37.5738V76.5783H35.3226V77.523H37.3192V78.4074H35.3226Z" fill="white"/>
<path d="M40.6168 80.4442C39.3639 80.4442 38.312 79.3655 38.312 78.0121C38.312 76.6587 39.3639 75.58 40.6168 75.58C41.796 75.58 42.533 76.4711 42.7407 77.3354H41.7424C41.6352 76.9401 41.2533 76.5046 40.6168 76.5046C39.8932 76.5046 39.2701 77.1411 39.2701 78.0121C39.2701 78.8831 39.8932 79.5196 40.6168 79.5196C41.2533 79.5196 41.6352 79.0841 41.7759 78.6955H42.7742C42.5732 79.5464 41.8228 80.4442 40.6168 80.4442Z" fill="white"/>
<path d="M45.575 80.3571H44.6169V76.5917H43.2568V75.6671H46.9351V76.5917H45.575V80.3571Z" fill="white"/>
<path d="M49.244 80.4442C48.1519 80.4442 47.4819 79.7675 47.4417 78.8764H48.3998C48.4534 79.2717 48.7214 79.5866 49.244 79.5866C49.7398 79.5866 49.9676 79.3588 49.9676 79.0975C49.9676 78.2064 47.5489 78.6352 47.5489 76.9401C47.5489 76.1696 48.1519 75.58 49.1837 75.58C50.1686 75.58 50.8252 76.25 50.8654 77.1076H49.9073C49.8805 76.7257 49.6192 76.4376 49.1837 76.4376C48.7415 76.4376 48.507 76.6654 48.507 76.9535C48.507 77.8379 50.9257 77.3957 50.9257 79.064C50.9257 79.8412 50.3227 80.4442 49.244 80.4442Z" fill="white"/>
<path d="M55.5478 80.3571H53.9934V75.6671H55.5478C56.8342 75.6671 57.866 76.7123 57.866 78.0121C57.866 79.3186 56.8074 80.3571 55.5478 80.3571ZM54.9515 76.5917V79.4325H55.5478C56.2714 79.4325 56.9079 78.8228 56.9079 78.0121C56.9079 77.2014 56.2714 76.5917 55.5478 76.5917H54.9515Z" fill="white"/>
<path d="M59.847 78.4074V79.4459H62.1652V80.3571H58.8889V75.6671H62.0982V76.5783H59.847V77.523H61.8436V78.4074H59.847Z" fill="white"/>
<path d="M64.7561 80.4442C63.664 80.4442 62.994 79.7675 62.9538 78.8764H63.9119C63.9655 79.2717 64.2335 79.5866 64.7561 79.5866C65.2519 79.5866 65.4797 79.3588 65.4797 79.0975C65.4797 78.2064 63.061 78.6352 63.061 76.9401C63.061 76.1696 63.664 75.58 64.6958 75.58C65.6807 75.58 66.3373 76.25 66.3775 77.1076H65.4194C65.3926 76.7257 65.1313 76.4376 64.6958 76.4376C64.2536 76.4376 64.0191 76.6654 64.0191 76.9535C64.0191 77.8379 66.4378 77.3957 66.4378 79.064C66.4378 79.8412 65.8348 80.4442 64.7561 80.4442Z" fill="white"/>
<path d="M68.4405 80.3571H67.4824V75.6671H68.4405V80.3571Z" fill="white"/>
<path d="M71.8187 78.7022V77.8848H73.9627V80.3571H73.3999L73.2324 79.7407C72.9778 80.0824 72.4485 80.4442 71.7718 80.4442C70.5189 80.4442 69.467 79.3655 69.467 78.0121C69.467 76.6587 70.5189 75.58 71.7718 75.58C72.951 75.58 73.7282 76.4242 73.8957 77.2014H72.8974C72.7835 76.8999 72.4083 76.5046 71.7718 76.5046C71.0482 76.5046 70.4251 77.1411 70.4251 78.0121C70.4251 78.8831 71.0482 79.5196 71.7718 79.5196C72.5021 79.5196 72.8505 79.0238 72.9443 78.7022H71.8187Z" fill="white"/>
<path d="M78.1475 78.7357V75.6671H79.0721V80.3571H78.1944L76.1107 77.2885V80.3571H75.1861V75.6671H76.0638L78.1475 78.7357Z" fill="white"/>
<path d="M81.3014 78.4074V79.4459H83.6196V80.3571H80.3433V75.6671H83.5526V76.5783H81.3014V77.523H83.298V78.4074H81.3014Z" fill="white"/>
<path d="M86.2239 80.3571H84.6695V75.6671H86.2239C87.5103 75.6671 88.5421 76.7123 88.5421 78.0121C88.5421 79.3186 87.4835 80.3571 86.2239 80.3571ZM85.6276 76.5917V79.4325H86.2239C86.9475 79.4325 87.584 78.8228 87.584 78.0121C87.584 77.2014 86.9475 76.5917 86.2239 76.5917H85.6276Z" fill="white"/>
<path d="M93.3282 80.3571H92.3701V76.5917H91.01V75.6671H94.6883V76.5917H93.3282V80.3571Z" fill="white"/>
<path d="M97.5131 80.4442C96.2602 80.4442 95.2083 79.3655 95.2083 78.0121C95.2083 76.6587 96.2602 75.58 97.5131 75.58C98.766 75.58 99.8179 76.6587 99.8179 78.0121C99.8179 79.3655 98.766 80.4442 97.5131 80.4442ZM97.5131 79.5196C98.2367 79.5196 98.8598 78.8831 98.8598 78.0121C98.8598 77.1411 98.2367 76.5046 97.5131 76.5046C96.7895 76.5046 96.1664 77.1411 96.1664 78.0121C96.1664 78.8831 96.7895 79.5196 97.5131 79.5196Z" fill="white"/>
<path d="M104.406 80.4442C103.314 80.4442 102.644 79.7675 102.604 78.8764H103.562C103.616 79.2717 103.884 79.5866 104.406 79.5866C104.902 79.5866 105.13 79.3588 105.13 79.0975C105.13 78.2064 102.711 78.6352 102.711 76.9401C102.711 76.1696 103.314 75.58 104.346 75.58C105.331 75.58 105.988 76.25 106.028 77.1076H105.07C105.043 76.7257 104.782 76.4376 104.346 76.4376C103.904 76.4376 103.669 76.6654 103.669 76.9535C103.669 77.8379 106.088 77.3957 106.088 79.064C106.088 79.8412 105.485 80.4442 104.406 80.4442Z" fill="white"/>
<path d="M108.945 80.3571H107.987V76.5917H106.627V75.6671H110.305V76.5917H108.945V80.3571Z" fill="white"/>
<path d="M114.724 80.3571H113.719L113.378 79.3923H111.609L111.267 80.3571H110.296L112.044 75.6671H112.982L114.724 80.3571ZM113.063 78.5079L112.493 76.8597L111.924 78.5079H113.063Z" fill="white"/>
<path d="M116.743 77.59L117.702 75.6671H118.733L117.206 78.6084V80.3571H116.248V78.6084L114.72 75.6671H115.785L116.743 77.59Z" fill="white"/>
<path d="M119.333 80.4442C119.025 80.4442 118.797 80.2097 118.797 79.9082C118.797 79.6067 119.025 79.3722 119.333 79.3722C119.642 79.3722 119.869 79.6067 119.869 79.9082C119.869 80.2097 119.642 80.4442 119.333 80.4442Z" fill="white"/>
</svg>

<svg xmlns="http://www.w3.org/2000/svg" width="140" height="81" fill="none"><path fill="#fff" d="M81.05 11.068c0-3.04-2.407-5.52-5.414-5.654A5.67 5.67 0 0 0 69.982 0a5.67 5.67 0 0 0-5.654 5.414 5.666 5.666 0 0 0-5.414 5.654c0 3.044 2.41 5.519 5.414 5.654.135 3.007 2.617 5.413 5.654 5.413s5.519-2.41 5.654-5.413a5.67 5.67 0 0 0 5.413-5.654m-.905-.438h-4.498V6.296a4.78 4.78 0 0 1 4.498 4.334m-5.377 5.228H70.42v-1.134a4.6 4.6 0 0 1 1.141-2.001 4.6 4.6 0 0 1 2.067-1.21h1.134v4.341h.004zm-9.58-4.353h1.141c.532.131 1.298.43 1.99 1.097a4.45 4.45 0 0 1 1.218 2.111v1.137h-4.345v-4.349h-.004zm0-5.228h4.345v1.149a4.07 4.07 0 0 1-.991 1.961 4.14 4.14 0 0 1-2.21 1.24h-1.151V6.274h.003zm4.801 7.131a5.3 5.3 0 0 0-1.057-1.44 5.1 5.1 0 0 0-1.229-.879 5 5 0 0 0 1.495-1.108c.372-.404.638-.827.824-1.232.255.478.62.992 1.134 1.462.357.332.765.616 1.199.842a5.4 5.4 0 0 0-2.366 2.355m3.65-2.778a4.8 4.8 0 0 1-1.882-1.057 4.76 4.76 0 0 1-1.334-2.158v-1.13h4.349v4.349h-1.134zm1.115-5.227h-4.335V.904a4.785 4.785 0 0 1 4.335 4.499M69.54.904v4.499h-4.335A4.78 4.78 0 0 1 69.541.904m-5.228 5.388v4.335h-4.498a4.79 4.79 0 0 1 4.498-4.335m-4.498 5.213h4.498v4.334a4.78 4.78 0 0 1-4.498-4.334m5.388 5.228h4.334v4.498c-2.34-.211-4.2-2.129-4.334-4.498m5.216 4.498v-4.498h4.335a4.785 4.785 0 0 1-4.335 4.498m5.228-5.392v-4.334h4.498a4.78 4.78 0 0 1-4.498 4.334M13.82 80.444h-.959v-3.773h-1.363v-.926h3.682v.926h-1.36zM19.157 77.575v-1.83h.959v4.7h-.96v-1.94H17.24v1.94h-.962v-4.7h.962v1.83zM22.547 78.49v1.04h2.322v.914h-3.284v-4.699h3.219v.912h-2.257v.947h2.002v.886zM29.302 76.657v1.22h.919a.65.65 0 0 0 .466-.17.56.56 0 0 0 .19-.438.56.56 0 0 0-.19-.441.68.68 0 0 0-.466-.171zm1.564 3.787-.94-1.691h-.62v1.691h-.963v-4.699h1.91q.45 0 .81.197a1.46 1.46 0 0 1 .78 1.32c0 .291-.087.572-.262.809q-.262.359-.711.532l1.108 1.841h-1.112M34.1 75.745h-.963v4.703h.962zM37.519 80.444h-.959v-3.773h-1.367v-.926h3.686v.926h-1.36zM41.832 80.532q-.554-.001-.992-.248a1.7 1.7 0 0 1-.667-.682 2 2 0 0 1-.233-.962v-2.895h.958v2.895q.001.421.248.696.247.27.686.27.435 0 .685-.27a1 1 0 0 0 .252-.696v-2.895h.958v2.895q0 .53-.237.962-.235.431-.667.682-.433.247-.991.248M47.424 78.589l-.573-1.648-.572 1.648zm1.666 1.855h-1.01l-.343-.966h-1.775l-.343.966h-.973l1.75-4.699h.94l1.746 4.7zM53.19 80.444h-3.142v-4.699h.963v3.773h2.18zM58.542 79.606q.366 0 .671-.197.311-.198.496-.543a1.6 1.6 0 0 0 .186-.77q0-.42-.186-.765a1.43 1.43 0 0 0-.496-.543 1.2 1.2 0 0 0-.67-.197c-.245 0-.464.066-.671.197a1.4 1.4 0 0 0-.496.543q-.186.345-.186.766c0 .28.062.54.186.769q.185.348.496.543.31.197.67.197m0 .926q-.617-.001-1.148-.325a2.454 2.454 0 0 1-1.16-2.11 2.47 2.47 0 0 1 1.16-2.108 2.14 2.14 0 0 1 1.148-.328q.618 0 1.149.329.529.323.845.885.313.558.314 1.222c0 .44-.106.853-.314 1.228a2.4 2.4 0 0 1-.845.882 2.17 2.17 0 0 1-1.149.325M65.25 75.745v.926h-2.217v1.13h1.907v.882h-1.907v1.761h-.962v-4.699zM70.926 78.589l-.572-1.648-.573 1.648zm1.666 1.855h-1.01l-.343-.966h-1.775l-.343.966h-.973l1.75-4.699h.94l1.747 4.7zM74.513 76.657v1.22h.919a.65.65 0 0 0 .466-.17.56.56 0 0 0 .19-.438.56.56 0 0 0-.19-.441.68.68 0 0 0-.466-.171zm1.564 3.787-.94-1.691h-.62v1.691h-.963v-4.699h1.91q.45 0 .81.197a1.46 1.46 0 0 1 .78 1.32c0 .291-.088.572-.263.809q-.262.359-.71.532l1.108 1.841h-1.112M80.298 80.444h-.958v-3.773h-1.364v-.926h3.682v.926h-1.36zM85.93 75.745v.926h-2.216v1.13h1.907v.882h-1.907v1.761h-.962v-4.699zM88.982 80.532q-.553-.001-.992-.248a1.7 1.7 0 0 1-.667-.682 2 2 0 0 1-.233-.962v-2.895h.959v2.895q0 .421.247.696.247.27.686.27.435 0 .685-.27a1 1 0 0 0 .252-.696v-2.895h.958v2.895q-.001.53-.236.962-.236.431-.668.682-.433.247-.991.248M95.453 80.444H92.31v-4.699h.966v3.773h2.177zM100.855 77.969h2.147v2.475h-.568l-.168-.616a1.8 1.8 0 0 1-.609.496 1.8 1.8 0 0 1-.857.208q-.617-.001-1.148-.325a2.455 2.455 0 0 1-1.16-2.11c0-.445.106-.846.314-1.222q.314-.562.846-.885a2.14 2.14 0 0 1 1.148-.329q.564.001 1.017.234.455.234.74.612.284.374.376.78h-.999a1.07 1.07 0 0 0-.401-.481c-.197-.146-.437-.215-.729-.215q-.36 0-.671.197a1.43 1.43 0 0 0-.495.543q-.187.345-.186.766c0 .28.061.54.186.769q.184.348.495.543.31.197.671.197c.328 0 .591-.088.787-.255q.3-.257.387-.562h-1.127v-.82zM105.383 75.745h-.963v4.703h.963zM108.594 79.128l1.152-3.383h.981l-1.673 4.7h-.974l-1.666-4.7h1.021zM112.721 75.745h-.962v4.703h.962zM117.158 78.818v-3.073h.926v4.7h-.879l-2.089-3.078v3.077h-.926v-4.699h.882zM121.663 77.969h2.148v2.475h-.569l-.168-.616a1.8 1.8 0 0 1-.609.496 1.8 1.8 0 0 1-.856.208q-.618-.001-1.149-.325a2.37 2.37 0 0 1-.845-.882 2.45 2.45 0 0 1-.314-1.228c0-.445.106-.846.314-1.222a2.4 2.4 0 0 1 .845-.885 2.15 2.15 0 0 1 1.149-.329q.563.001 1.017.234.454.234.74.612.283.374.375.78h-.999q-.105-.267-.401-.481-.293-.217-.729-.215-.36 0-.67.197a1.4 1.4 0 0 0-.496.543q-.186.345-.186.766c0 .28.062.54.186.769q.185.348.496.543.31.197.67.197c.328 0 .591-.088.788-.255q.3-.257.386-.562h-1.126v-.82zM12.201 34.399q-1.594 0-2.391.251c-.529.168-.926.525-1.181 1.068q-.388.819-.387 2.596v9.194h11.104V38.27q.001-1.778-.364-2.57-.36-.794-1.16-1.046c-.532-.168-1.355-.252-2.478-.252v-.773h12.38v.773h-.317q-1.505.045-2.253.295-.75.252-1.138 1.069-.387.82-.386 2.548v21.665q-.001 1.775.386 2.595c.26.547.66.9 1.207 1.068q.82.252 2.504.252v.773h-12.38v-.773h.409q1.456 0 2.205-.295.753-.295 1.068-1.138.32-.842.321-2.482v-10.74H8.246v10.74q-.001 1.64.343 2.482c.23.562.583.94 1.068 1.138q.729.294 2.14.295h.408v.773H0v-.773h.408q1.366 0 2.115-.295.754-.296 1.093-1.116c.226-.547.343-1.382.343-2.504V38.314q-.001-2.368-.751-3.139-.75-.777-2.57-.776H0v-.773h12.201z"/><path fill="#fff" d="M50.198 56.016h.091v-17.75q0-1.728-.386-2.548a1.92 1.92 0 0 0-1.229-1.068q-.843-.252-2.435-.252v-.772h8.968v.773q-1.685 0-2.435.729-.75.726-.751 2.365v27.673h-.638L33.724 39.998h-.091v19.98q-.001 1.684.364 2.527c.245.561.62.926 1.138 1.09q.777.252 2.23.295H38v.773h-9.602v-.773c1.276-.062 2.176-.302 2.709-.725q.798-.64.798-2.552v-23.12a10 10 0 0 1-.386-.525 8 8 0 0 0-.478-.612q-.864-1.184-1.433-1.571-.567-.387-1.888-.386v-.773h6.737l15.745 22.39zM80.601 34.399q-1.228-.001-1.845.386-.612.383-.612 1.389 0 .591.32 1.637l5.053 18.023h.092l3.776-12.789-1.502-5.326q-.496-1.639-1.137-2.41-.636-.775-2.227-.91v-.773H93.53v.773c-1.152 0-1.997.153-2.526.455q-.797.456-.795 1.637-.001.591.365 1.914l4.735 17.25h.088L100.086 39q.454-1.501.456-2.37-.001-1.18-.751-1.706-.751-.525-2.435-.525v-.772h7.965v.773c-.576.062-1.046.21-1.411.455-.365.24-.689.667-.977 1.272-.288.606-.602 1.517-.933 2.73l-7.648 26.489h-.817L88.3 46.228h-.091l-5.69 19.117h-.686L74.05 38.172q-.592-2.003-1.232-2.796-.635-.8-2.001-.981v-.773H80.6v.776M115.28 34.399q-1.228-.001-1.844.386-.613.383-.613 1.389 0 .591.321 1.637l5.053 18.023h.091l3.776-12.789-1.502-5.326q-.496-1.639-1.137-2.41-.635-.775-2.227-.91v-.773h11.013v.773q-1.734.001-2.527.455c-.532.303-.794.85-.794 1.637q-.001.591.364 1.914l4.736 17.25h.087L134.765 39q.455-1.501.456-2.37-.001-1.18-.751-1.706-.751-.525-2.435-.525v-.772H140v.773c-.576.062-1.046.21-1.411.455-.364.24-.689.667-.977 1.272q-.433.91-.933 2.73l-7.648 26.489h-.817l-5.235-19.117h-.091l-5.69 19.117h-.686l-7.783-27.173q-.59-2.003-1.232-2.796-.635-.8-2.001-.981v-.773h9.784v.776M58.787 43.541q0 4.802 1.05 6.963 1.051 2.159 3.44 2.158c1.594 0 2.83-.765 3.493-2.304q.995-2.303.995-6.82 0-4.891-1.093-7.003-1.094-2.117-3.423-2.118-1.965-.001-2.942 1.436-.981 1.434-1.25 3.365-.27 1.93-.27 4.32m4.49-10.113c1.648 0 3.052.478 4.204 1.437q1.734 1.432 2.6 3.75.868 2.315.867 4.93c0 1.742-.292 3.408-.868 4.942q-.864 2.3-2.599 3.737-1.733 1.433-4.203 1.433c-1.648 0-2.968-.46-4.123-1.378q-1.735-1.38-2.643-3.693c-.609-1.542-.908-3.226-.908-5.042s.288-3.386.868-4.928q.865-2.319 2.599-3.751 1.735-1.438 4.207-1.437M66.829 56.198h-7.652v1.214h7.652z"/></svg>
